X: 9
T: Devlin's
I: Devlin's	J-46	Bm	jig
M: 6/8
R: jig
K: Bm
"Bm"d2B BAB| F2B BAB| "G"d2B Bcd| "A"cBc ABc|
"G"d3 "A"e3| "Bm"f2b afe| "G"dcB "A"AFE| "Bm"FBB B2c:|
|:"D"a3 f3| "A"e2A cBA| c2A cBA| "F#"cde f2e|
"Bm"d2B BAB| F2B Bcd| "G"efg "A"fef| "Bm"dBB B3:|
%%text Roaring Jelly  J-46

